X: 1
T: The Rocky Road To Dublin
R: slip jig
M: 9/8
L: 1/8
K: Ador
efe d2B ~A3|E2A A2A Bcd|efe d2B A2c|B2G G2A Bcd:|
e2a a2f ~g3|e2a a2f g2d|e2a a2f g2e|d2B G2A Bcd|
e2a a2f ~g3|e2a a2A Bcd|efg fga g2e|d2B G2A Bcd||


Tune 593	Setting 22974

